X: 1
T: Scott Meikle
C: George Meikle
R: reel
B: RSCDS 46-3
N: George has published a slightly different version in his book "Originally Mine".
Z: 2005 John Chambers <jc:trillian.mit.edu>
M: C|
L: 1/8
K: F
AG \
|:"F"FAcd "C7"cAGA | "F(Dm)"FAcd "C7"cAGA |  "F"FAcd "D7"cBAc | "Gm"B2G2 "(G7)"G3^d |
| "C"ecfc gcfc | "C"ecgc fcec |  "C"ec=Bc "C7"dcde |1 "F"f2e2 "C7"d2c2 :|2 "F"f4 f2c2 |
|:"F"fcgc "C7"acgc | "F"fcac gcfc |  "F"fcgc acgc | "C7"e2c2 c3d |
| "C"ecfc gcfc | "C"ecfc gcfc | "C"ec=Bc "C7"dcde |1 "F"f2e2 "C7"d2c2 :|2 "F"f4 f2 |]
%%center Book46/ScottMeikle_F4-JC.abc

%%sep 1 1 500
%%sep 1 1 500

